material/.icons/material/toy-brick-plus.svg

<svg xmlns="http://www.w3.org/2000/svg" viewBox="0 0 24 24"><path d="M19 6V5a2 2 0 00-2-2h-2a2 2 0 00-2 2v1h-2V5a2 2 0 00-2-2H7a2 2 0 00-2 2v1H3v14h10.09a5.47 5.47 0 01-.09-1 6 6 0 018-5.66V6m-1 9v3h3v2h-3v3h-2v-3h-3v-2h3v-3z"/></svg>

<?xml version="1.0" encoding="UTF-8"?><!DOCTYPE svg PUBLIC "-//W3C//DTD SVG 1.1//EN" "http://www.w3.org/Graphics/SVG/1.1/DTD/svg11.dtd"><svg xmlns="http://www.w3.org/2000/svg" xmlns:xlink="http://www.w3.org/1999/xlink" version="1.1" id="mdi-toy-brick-plus" width="24" height="24" viewBox="0 0 24 24"><path d="M19 6V5A2 2 0 0 0 17 3H15A2 2 0 0 0 13 5V6H11V5A2 2 0 0 0 9 3H7A2 2 0 0 0 5 5V6H3V20H13.09A5.47 5.47 0 0 1 13 19A6 6 0 0 1 21 13.34V6M20 15V18H23V20H20V23H18V20H15V18H18V15Z" /></svg>
